X: 10191
M: C
L: 1/8
K: D
V: 1 staves=3
|:\
d2d>d f2d>f | a2a>a a2z2 | a2f>a bagf | e2a>a agfe |\
d2d>d f2d>f | a2a>a a2z2 | fage d2c2 | d2d>d d2 :|
|:\
f2f>f fedc | B2B>B Bcd^d | e2e>e edcB | A2A>A A2z2 |\
d2d>d f2d>f | a2a>a a2z2 | fage d2c2 | d2d>d d2 :|
V: 2
|:\
|: "^Unison."\
f2f>f fedc | B2B>B Bcd^d | e2e>e edcB A2A>A A2z2 |\
V: 3 clef=bass middle=d
|:\
d2d>d f2d>f | a2a>a a2z2 | d2z2 d2d2 | A2A>A A2z2 |\
d2d>d f2d>f | a2A>A A2z2 | d2g2 a2A2 | d2d>d d2 :|
|:\
f2f>f fedc | B2B>B Bcd^d | e2e>e edcB | A2A>A A2z2 |\
d2d>d f2d>f | a2A>A A2z2 | d2g2 a2A2 | d2d>d d2 :|


